X:226
T:Steirische Jodler und Taenze Nr. 1 - 48 (24.)
C:traditionell
A:Salzkammergut
S:MIDI erhalten von Christian Amon. Nach einer kopie im besitz von Johann Stoeckl eines manuscriptes. Stoeckl(zitiert von Amon): "diese sammlung wurde 1935 im hause der familie Hohenlohe-Schillingfuerst gefunden. Sie wurde von einem der beiden brueder Steinegger 1866 verfasst. Die originale sind im Ausseer Kammerhofmuseum".
M:3/4
L:1/8
K:G
V:1
G2 BD GB | cF A3 G | FA fF Af | G2 BD G2 |\
G2 BD GB | cF A3 G | FA fF Af | G4 z2 |*
V:2
B2 dG Bd | eA c3 B | Ac aA ca | B2 dG B2 |\
B2 dG Bd | eA c3 B | Ac aA ca | B4 z2 |*
